icon/cg/corner-up-right.svg

<svg viewBox="0 0 24 24" fill="none" xmlns="http://www.w3.org/2000/svg" height="1em" width="1em">
  <path d="M13.3724 14.7219L14.7835 16.1391L21.1612 9.78892L14.811 3.41125L13.3937 4.82242L17.1702 8.61526L6.86461 8.59304C4.65547 8.58828 2.86076 10.3753 2.85599 12.5844L2.83875 20.5844L4.83874 20.5887L4.85599 12.5887C4.85837 11.4841 5.75573 10.5907 6.8603 10.593L17.496 10.616L13.3724 14.7219Z" fill="currentColor"/>
</svg>

<svg width="24" height="24" fill="none" xmlns="http://www.w3.org/2000/svg"><path d="m13.372 14.722 1.412 1.417 6.377-6.35-6.35-6.378-1.417 1.411 3.776 3.793-10.305-.022a4 4 0 0 0-4.009 3.991l-.017 8 2 .005.017-8a2 2 0 0 1 2.004-1.996l10.636.023-4.124 4.106Z" fill="currentColor"/></svg>
